X:1
T:Polka #2
M:2/4
L:1/8
N:Polka
Z:Harry Ferguson 2/20/2003
K:Em
|: EE/E/ EE/E/ | EG B2 | DD/D/ DD/D/ | DAFD |
| EE/E/ EE/E/ | EG BG/E/ | DF/G/ A/F/D |[1 E2E2 :|[2 E3 E/E/ ||
|: Eed^c | BA GF/E/ | DF/G/ AF/E/ | DF/G/ A/F/D |
Eed^c | BA GF/E/ | DF/G/ A/F/D | E2E2 :|
